assets/components_previews/html/light/html.svg

<svg xmlns="http://www.w3.org/2000/svg" width="320" height="232" fill="none" viewBox="0 0 320 232"><path fill="#AA99EC" fill-rule="evenodd" d="M165.118 103.222a1 1 0 0 0 .104 1.411l1.84 1.585c.366.316.587.508.728.657-.141.149-.362.341-.728.657l-1.84 1.586a1 1 0 0 0 1.306 1.515l1.84-1.586.043-.038c.349-.3.684-.589.923-.859.262-.296.541-.713.541-1.275s-.279-.979-.541-1.275c-.239-.27-.574-.558-.923-.859l-.043-.038-1.84-1.585a1 1 0 0 0-1.41.104m-2.486 0a1 1 0 0 1-.104 1.411l-1.84 1.585c-.366.316-.587.508-.728.657.141.149.362.341.728.657l1.84 1.586a1 1 0 0 1-1.306 1.515l-1.84-1.586-.043-.038c-.349-.3-.684-.589-.923-.859-.262-.296-.541-.713-.541-1.275s.279-.979.541-1.275c.239-.27.574-.558.923-.859l.043-.038 1.84-1.585a1 1 0 0 1 1.41.104" clip-rule="evenodd"/><path fill="#AA99EC" d="M154.812 110.522c.982.103.545.103 2.086.103a.978.978 0 0 0 0-1.955c-1.609 0-1.015-.001-1.885-.092-.854-.089-1.337-.256-1.695-.509a3 3 0 0 1-.632-.596c-.255-.323-.425-.756-.517-1.542-.095-.81-.097-1.867-.097-3.391v-2.9c0-.267 0-.906.281-1.378.173-.29.394-.534.622-.658a2.6 2.6 0 0 1 1.233-.312l1.041.036c.38.008.823-.004 1.251-.119a2.42 2.42 0 0 0 1.709-1.709c.115-.428.127-.871.119-1.251l-.036-1.04c0-.469.124-.876.341-1.254.127-.22.348-.423.653-.6.462-.269 1.015-.271 1.353-.273l.993-.002c1.834 0 2.501.014 3.005.19.872.308 1.538.95 1.848 1.735.078.197.133.455.162.903.03.457.031 1.04.031 1.88v5.113a.974.974 0 1 0 1.947 0v-5.146c0-.8 0-1.447-.035-1.975-.036-.545-.111-1.03-.294-1.495-.529-1.34-1.638-2.373-3.014-2.858-.859-.303-2.331-.303-3.886-.302-2.84 0-4.526 0-5.909.487-2.22.782-3.994 2.444-4.837 4.58-.281.712-.406 1.477-.466 2.394-.059.9-.059 2.013-.059 3.432v2.583c0 1.448 0 2.621.11 3.558.114.974.357 1.811.927 2.53a5 5 0 0 0 1.034.978c.745.526 1.606.75 2.616.855" opacity=".4"/><path fill="#AA99EC" d="m141.203 137.104-7.168-3.376v-2l7.168-3.376v1.84l-4.64 2.144a8 8 0 0 1-.64.256 4 4 0 0 1-.48.128q.175.032.496.128.32.096.624.24l4.64 2.144zm1.802.896v-11.68h2v2.88l-.048 1.68h.544l-.592.464q.015-1.056.672-1.68.655-.624 1.744-.624 1.296 0 2.064.864.784.864.784 2.32V138h-2v-5.536q0-.816-.416-1.248-.417-.448-1.152-.448-.752 0-1.184.448-.416.448-.416 1.28V138zm13.401 0q-1.231 0-1.968-.704-.72-.72-.72-1.936v-4.352h-2.432V129.2h2.432v-2.48h2.016v2.48h3.504v1.808h-3.504v4.304q0 .384.208.64.225.24.608.24h2.608V138zm4.026 0v-8.8h1.664v1.28h.336l-.304.224q0-.736.4-1.2t1.072-.464q.72 0 1.168.56.464.544.464 1.424l-.384-.576h.544l-.256.256q.016-.768.432-1.216.415-.448 1.104-.448.816 0 1.328.624.528.624.528 1.632V138h-1.76v-6.56q0-.432-.208-.672-.192-.256-.56-.256a.64.64 0 0 0-.544.256q-.176.24-.176.672V138h-1.6v-6.56q0-.432-.192-.672-.175-.256-.528-.256-.368 0-.576.256-.192.24-.192.672V138zm14.426 0q-.864 0-1.52-.352a2.57 2.57 0 0 1-1.008-.992q-.369-.656-.368-1.504v-7.024h-2.896v-1.808h4.896v8.784q0 .496.272.8.288.288.768.288h2.576V138zm3.946-.896v-1.84l4.64-2.144q.32-.144.624-.24.32-.112.496-.144a5 5 0 0 1-.496-.128 6 6 0 0 1-.624-.224l-4.64-2.16v-1.872l7.168 3.376v2z"/></svg>

<svg width="320" height="232" viewBox="0 0 320 232" fill="none" xmlns="http://www.w3.org/2000/svg">
<path fill-rule="evenodd" clip-rule="evenodd" d="M165.118 103.222C164.757 103.641 164.804 104.272 165.222 104.633L167.062 106.218C167.428 106.534 167.649 106.726 167.79 106.875C167.649 107.024 167.428 107.216 167.062 107.532L165.222 109.118C164.804 109.478 164.757 110.11 165.118 110.528C165.478 110.946 166.11 110.993 166.528 110.633L168.368 109.047C168.382 109.034 168.397 109.022 168.411 109.009C168.76 108.709 169.095 108.42 169.334 108.15C169.596 107.854 169.875 107.437 169.875 106.875C169.875 106.313 169.596 105.896 169.334 105.6C169.095 105.33 168.76 105.042 168.411 104.741C168.397 104.728 168.382 104.716 168.368 104.703L166.528 103.118C166.11 102.757 165.478 102.804 165.118 103.222Z" fill="#AA99EC"/>
<path fill-rule="evenodd" clip-rule="evenodd" d="M162.632 103.222C162.993 103.641 162.946 104.272 162.528 104.633L160.688 106.218C160.322 106.534 160.101 106.726 159.96 106.875C160.101 107.024 160.322 107.216 160.688 107.532L162.528 109.118C162.946 109.478 162.993 110.11 162.632 110.528C162.272 110.946 161.641 110.993 161.222 110.633L159.382 109.047C159.368 109.034 159.353 109.022 159.339 109.009C158.99 108.709 158.655 108.42 158.416 108.15C158.154 107.854 157.875 107.437 157.875 106.875C157.875 106.313 158.154 105.896 158.416 105.6C158.655 105.33 158.99 105.042 159.339 104.741C159.353 104.728 159.368 104.716 159.382 104.703L161.222 103.118C161.641 102.757 162.272 102.804 162.632 103.222Z" fill="#AA99EC"/>
<path opacity="0.4" d="M154.812 110.522C155.794 110.625 155.357 110.625 156.898 110.625C157.437 110.625 157.875 110.187 157.875 109.648C157.875 109.108 157.437 108.67 156.898 108.67C155.289 108.67 155.883 108.669 155.013 108.578C154.159 108.489 153.676 108.322 153.318 108.069C153.076 107.898 152.864 107.697 152.686 107.473C152.431 107.15 152.261 106.717 152.169 105.931C152.074 105.121 152.072 104.064 152.072 102.54L152.072 99.64C152.072 99.373 152.072 98.7344 152.353 98.2623C152.526 97.9713 152.747 97.7282 152.975 97.6044C153.341 97.4048 153.762 97.2915 154.208 97.2915L155.249 97.328C155.629 97.3359 156.072 97.3239 156.5 97.2091C157.334 96.9857 157.986 96.3343 158.209 95.5003C158.324 95.0721 158.336 94.6286 158.328 94.2485L158.292 93.2081C158.292 92.7405 158.416 92.3333 158.633 91.9549C158.76 91.7343 158.981 91.5324 159.286 91.3551C159.748 91.0862 160.301 91.0837 160.639 91.0822C160.977 91.0807 161.334 91.0795 161.632 91.0795C163.466 91.0795 164.133 91.0935 164.637 91.2708C165.509 91.5783 166.175 92.2199 166.485 93.0053C166.563 93.2019 166.618 93.4603 166.647 93.9083C166.677 94.365 166.678 94.9479 166.678 95.7882V100.901C166.678 101.439 167.114 101.875 167.651 101.875C168.189 101.875 168.625 101.439 168.625 100.901V95.755C168.625 94.9558 168.625 94.3083 168.59 93.7797C168.554 93.2351 168.479 92.7494 168.296 92.2852C167.767 90.9459 166.658 89.9116 165.282 89.4266C164.423 89.1241 162.951 89.1244 161.396 89.125C158.556 89.1246 156.87 89.1244 155.487 89.6115C153.267 90.3937 151.493 92.0564 150.65 94.1925C150.369 94.9044 150.244 95.6691 150.184 96.586C150.125 97.4867 150.125 98.5993 150.125 100.018V102.601C150.125 104.049 150.125 105.222 150.235 106.159C150.349 107.133 150.592 107.97 151.162 108.689C151.457 109.062 151.806 109.391 152.196 109.667C152.941 110.193 153.802 110.417 154.812 110.522Z" fill="#AA99EC"/>
<path d="M141.203 137.104L134.035 133.728V131.728L141.203 128.352V130.192L136.563 132.336C136.349 132.432 136.136 132.517 135.923 132.592C135.72 132.656 135.56 132.699 135.443 132.72C135.56 132.741 135.725 132.784 135.939 132.848C136.152 132.912 136.36 132.992 136.563 133.088L141.203 135.232V137.104ZM143.005 138V126.32H145.005V129.2L144.957 130.88H145.501L144.909 131.344C144.919 130.64 145.143 130.08 145.581 129.664C146.018 129.248 146.599 129.04 147.325 129.04C148.189 129.04 148.877 129.328 149.389 129.904C149.911 130.48 150.173 131.253 150.173 132.224V138H148.173V132.464C148.173 131.92 148.034 131.504 147.757 131.216C147.479 130.917 147.095 130.768 146.605 130.768C146.103 130.768 145.709 130.917 145.421 131.216C145.143 131.515 145.005 131.941 145.005 132.496V138H143.005ZM156.406 138C155.585 138 154.929 137.765 154.438 137.296C153.958 136.816 153.718 136.171 153.718 135.36V131.008H151.286V129.2H153.718V126.72H155.734V129.2H159.238V131.008H155.734V135.312C155.734 135.568 155.804 135.781 155.942 135.952C156.092 136.112 156.294 136.192 156.55 136.192H159.158V138H156.406ZM160.432 138V129.2H162.096V130.48H162.432L162.128 130.704C162.128 130.213 162.261 129.813 162.528 129.504C162.795 129.195 163.152 129.04 163.6 129.04C164.08 129.04 164.469 129.227 164.768 129.6C165.077 129.963 165.232 130.437 165.232 131.024L164.848 130.448H165.392L165.136 130.704C165.147 130.192 165.291 129.787 165.568 129.488C165.845 129.189 166.213 129.04 166.672 129.04C167.216 129.04 167.659 129.248 168 129.664C168.352 130.08 168.528 130.624 168.528 131.296V138H166.768V131.44C166.768 131.152 166.699 130.928 166.56 130.768C166.432 130.597 166.245 130.512 166 130.512C165.765 130.512 165.584 130.597 165.456 130.768C165.339 130.928 165.28 131.152 165.28 131.44V138H163.68V131.44C163.68 131.152 163.616 130.928 163.488 130.768C163.371 130.597 163.195 130.512 162.96 130.512C162.715 130.512 162.523 130.597 162.384 130.768C162.256 130.928 162.192 131.152 162.192 131.44V138H160.432ZM174.858 138C174.282 138 173.775 137.883 173.338 137.648C172.911 137.413 172.575 137.083 172.33 136.656C172.084 136.219 171.962 135.717 171.962 135.152V128.128H169.066V126.32H173.962V135.104C173.962 135.435 174.052 135.701 174.234 135.904C174.426 136.096 174.682 136.192 175.002 136.192H177.578V138H174.858ZM178.804 137.104V135.264L183.444 133.12C183.657 133.024 183.865 132.944 184.068 132.88C184.281 132.805 184.446 132.757 184.564 132.736C184.446 132.715 184.281 132.672 184.068 132.608C183.854 132.544 183.646 132.469 183.444 132.384L178.804 130.224V128.352L185.972 131.728V133.728L178.804 137.104Z" fill="#AA99EC"/>
</svg>
